X: 8446
T: Crackin' Fiddle, The
R: reel
M: 4/4
K: Amajor
|:EFcF AAAc|e2de c/B/ABc|FdcF ABAF|EFAE ABBB|
BcAF AAAc|e2de c/B/ABc|efaf abbb|1 afea fecA:|2 afea fefe||
|:a2a2 feca-|aa2f ecBA|EFFA EFAc|d/c/BcA BdcB|
AcBA FBAF|EFAE ABBB|cefe a4|1 afea fefe:|2 afea fecA||

